X:646
T:Ready Penny, The
B:Beauties of Gow 3 (1819)
Z:Nigel Gatherer
L:1/8
M:4/4
K:G
D<GBG c=F A2 | DGBG   dGBg | =fadf cF A2 | g>de>c d>cBG      |
DGBG  c=F A2 | DGBG   dGBg | =fadf cF A2 | G>EDC  B,>A,B,G, ||
gdg_b =fF A2 | gdg_b =fagd | =fadf cF A2 | g>de>c d>cBG      |
gdg_b =fF A2 | gdg_b =fagd | =fadf cF A2 | G>EDC  B,>A,B,G, |]
